packages/kaspersky-hexa-ui-icons/src/iconsSVGs/16/Unknown.svg

<svg width="16" height="16" viewBox="0 0 16 16" fill="none" xmlns="http://www.w3.org/2000/svg">
<path d="M7.01502 4.46635C6.42011 4.46635 5.93623 4.94997 5.93623 5.5302C5.93623 5.88918 5.64522 6.1802 5.28623 6.1802C4.92725 6.1802 4.63623 5.88918 4.63623 5.5302C4.63623 4.21737 5.71686 3.16635 7.01502 3.16635C8.29682 3.16635 9.36392 4.20411 9.36392 5.50058V5.75563C9.36392 6.67683 8.73697 7.47983 7.84326 7.70325C7.72973 7.73164 7.65008 7.83365 7.65008 7.95068V8.12486C7.65008 8.48384 7.35906 8.77486 7.00008 8.77486C6.64109 8.77486 6.35008 8.48384 6.35008 8.12486V7.95068C6.35008 7.23712 6.83571 6.61513 7.52797 6.44207C7.84295 6.36332 8.06392 6.08031 8.06392 5.75563V5.50058C8.06392 4.9367 7.59356 4.46635 7.01502 4.46635Z" fill="#0D0D15"/>
<path d="M7.00006 10.7852C7.3916 10.7852 7.709 10.4678 7.709 10.0763C7.709 9.68475 7.3916 9.36735 7.00006 9.36735C6.60852 9.36735 6.29111 9.68475 6.29111 10.0763C6.29111 10.4678 6.60852 10.7852 7.00006 10.7852Z" fill="#0D0D15"/>
<path fill-rule="evenodd" clip-rule="evenodd" d="M0.350098 7.0001C0.350098 3.3274 3.3274 0.350098 7.0001 0.350098C10.6728 0.350098 13.6501 3.3274 13.6501 7.0001C13.6501 10.6728 10.6728 13.6501 7.0001 13.6501C3.3274 13.6501 0.350098 10.6728 0.350098 7.0001ZM7.0001 1.6501C4.04537 1.6501 1.6501 4.04537 1.6501 7.0001C1.6501 9.95482 4.04537 12.3501 7.0001 12.3501C9.95482 12.3501 12.3501 9.95482 12.3501 7.0001C12.3501 4.04537 9.95482 1.6501 7.0001 1.6501Z" fill="#0D0D15"/>
</svg>

<svg xmlns="http://www.w3.org/2000/svg" width="16" height="16" fill="none" viewBox="0 0 16 16"><path fill="#000" d="M7.015 4.466c-.595 0-1.079.484-1.079 1.064a.65.65 0 0 1-1.3 0c0-1.313 1.081-2.364 2.379-2.364 1.282 0 2.349 1.038 2.349 2.334v.255c0 .921-.627 1.724-1.521 1.948a.255.255 0 0 0-.193.248v.174a.65.65 0 0 1-1.3 0v-.174a1.555 1.555 0 0 1 1.178-1.509.708.708 0 0 0 .536-.686v-.255c0-.564-.47-1.034-1.049-1.034M7 10.785a.709.709 0 1 0 0-1.418.709.709 0 0 0 0 1.418"/><path fill="#000" fill-rule="evenodd" d="M.3501 7.0001c0-3.6727 2.9773-6.65 6.65-6.65s6.65 2.9773 6.65 6.65-2.9773 6.65-6.65 6.65-6.65-2.9773-6.65-6.65m6.65-5.35c-2.9547 0-5.35 2.3953-5.35 5.35s2.3953 5.35 5.35 5.35 5.35-2.3953 5.35-5.35-2.3953-5.35-5.35-5.35" clip-rule="evenodd"/></svg>
